X:086
T:Nelson’s Victory Hornpipe TS.086
M:C|
L:1/8
Q:1/2=90
S:Thomas Sands’ MS,1810,Lincolnshire
R:.hornpipe
O:England;Lincolnshire
N:This is not the usual tune with this title
Z:vmp.Ruairidh Greig, 2011
K:D
“s-q in ms”FG|A2A2A2FA|BcdB A2FG|ABAF ABAF|GABG E2FG|
A2A2A2FA|BcdBA3d|cdef gedc|d2d2d2:|
|:de|f2f2f2ef|gfed dcBA|FAdf edcd|edcd e3a|
f2f2f2(ef)|gfed dcBA|FAdf gedc|d2d2d2:|]

